X:1
L:1/4
M:3/4
K:G
""G"" d3/2 d/ d |""C"" e3/2 e/ e |""G"" d g3/2 d/ | b3 |""D7"" b a3/2 d/ | f3 |""G"" a g3/2 B/ | d3 | 
 d3/2 d/ d |""C"" e3/2 e/ e |""G"" d g3/2 d/ | b3 |""D7"" b a3/2 d/ | f2 a |""G"" g3/2 g/ g | g z z :: 
""G"" b a g | f e d |""D7"" f z e | c3 | f z e | c2 B/d/ |""G"" e z d | B3 | b a g | f e d |""D7"" f z e | 
 c3 | f z e | d c' f |""G"" g3/2 g/ g | g z z ::[K:C]""C"" e a g | c3 |{/d} c B3/2 c/ |""G7"" ^c2 d | 
 g b a | d3 |{/e} d ^c3/2 d/ |""C"" ^d2 e | e a g | c3 |{/d} c B c |""G7"" ^c2 d | g b3/2 a/ | 
""C"" g2 e/c/ |""G7"" g2 f/d/ |""C"" c z z :|
